X: 182
T: Liberties Reel
N: 120078 
C: BB
N: revised 1/07
R: reel
Q: 1/8=380
M: 4/4
L: 1/8
K: Amix
"A"EAcA "Bm"dcBA|"G"BGEF GDB,D|"A"EAce aece|"Bm"dBBA "E7"^GBGF|
"A"EAcA "Bm"dcBd|"A"cAEA "G"GDB,D|"A"EAce "D"afdf|"E7"^gedB "A"cA A2 :|
"A"(3cBA ea "F#m"fAef|"G"gdBd gbaf|"A"eAcA "D"dcdf|"A"ecAc "G"dBGB|
"A"cAea "F#m"fAeA|"A"ceae "G"gabg|"A"aece "D"dcdf|"E"^gedB "A"cA A2  :|
%%%%%%%%%%%%%%%%%%%%%%%%%%%%%%%%%%%%%%%%%%%
